assets/images/icons/mail.svg

<svg width="16" height="11" viewBox="0 0 16 11" fill="none" xmlns="http://www.w3.org/2000/svg">
<path d="M1.18127 0.00107324C0.954514 -0.00804184 0.729097 0.0410182 0.525035 0.143908L7.59924 6.63973C7.7174 6.71936 7.85532 6.76175 7.99626 6.76175C8.1372 6.76175 8.27511 6.71936 8.39328 6.63973L15.4609 0.143908C15.2706 0.0421675 15.0581 -0.0070208 14.8441 0.00107324H1.18127ZM0.059109 0.830908C0.0208741 0.991172 0.00104942 1.15556 4.78733e-05 1.32065V9.68019C-0.00133967 9.88084 0.027443 10.0805 0.085359 10.272L5.11867 5.47661L0.059109 0.830908ZM15.9531 0.830908L10.9132 5.47661L15.9203 10.272C15.9763 10.0732 16.0029 9.86681 15.999 9.65979V1.30022C16.0039 1.14271 15.9906 0.985189 15.9597 0.830908H15.9531ZM5.70928 6.04116L0.630032 10.9046C0.811187 10.9708 1.00231 11.0031 1.19439 10.9998H14.8441C15.0276 11.0027 15.21 10.9704 15.3822 10.9046L10.3029 6.04116C9.79106 6.49689 9.2792 6.98664 8.76733 7.43557C8.53445 7.56957 8.27247 7.63989 8.0061 7.63989C7.73974 7.63989 7.47776 7.56957 7.24487 7.43557C6.73301 6.97984 6.22114 6.49689 5.71584 6.04116H5.70928Z" fill="black"/>
</svg>

<svg width="16" height="11" fill="none" xmlns="http://www.w3.org/2000/svg"><path d="M1.181.001C.955-.008.73.041.525.144L7.599 6.64a.71.71 0 0 0 .794 0L15.461.144A1.21 1.21 0 0 0 14.844 0H1.181zM.06.831C.021.99.001 1.156 0 1.32v8.36c-.001.2.027.4.085.591L5.12 5.477.059.83zm15.894 0-5.04 4.646 5.007 4.795c.056-.199.083-.405.079-.612V1.3a2.064 2.064 0 0 0-.04-.47h-.006zM5.71 6.04.63 10.905c.181.066.372.098.564.095h13.65c.184.003.366-.03.538-.095l-5.08-4.864c-.51.456-1.023.946-1.535 1.395a1.525 1.525 0 0 1-1.522 0c-.512-.456-1.024-.94-1.53-1.395H5.71z" fill="#000"/></svg>
